images/guides.svg

<svg fill="none" height="50" viewBox="0 0 53 50" width="53" xmlns="http://www.w3.org/2000/svg"><path d="m11.5 16c-6.35088 0-11.5 5.0745-11.5 11.3333 0 8.5 11.5 22.6667 11.5 22.6667s11.5-14.1667 11.5-22.6667c0-6.2588-5.1491-11.3333-11.5-11.3333zm0 17c-3.174 0-5.75-2.5387-5.75-5.6667s2.576-5.6666 5.75-5.6666 5.75 2.5386 5.75 5.6666-2.576 5.6667-5.75 5.6667z" fill="#2854a1"/><path d="m14 49h29.1169s8.8831-.5831 8.8831-7.5801-8.8831-6.997-8.8831-6.997h-11.3507s-6.9091 0-6.9091-6.9971c0-6.997 6.9091-6.4139 6.9091-6.4139h11.3507" stroke="#71cfff" stroke-dasharray="3 3" stroke-linecap="round" stroke-linejoin="round" stroke-width="2"/><path d="m44.5 0c-4.1419 0-7.5 3.2835-7.5 7.33333 0 5.49997 7.5 14.66667 7.5 14.66667s7.5-9.1667 7.5-14.66667c0-4.04983-3.3581-7.33333-7.5-7.33333zm0 11c-2.07 0-3.75-1.64267-3.75-3.66667s1.68-3.66666 3.75-3.66666 3.75 1.64266 3.75 3.66666-1.68 3.66667-3.75 3.66667z" fill="#2854a1"/></svg>

<svg width="53" height="50" viewBox="0 0 53 50" fill="none" xmlns="http://www.w3.org/2000/svg">
<path d="M11.5 16C5.14912 16 0 21.0745 0 27.3333C0 35.8333 11.5 50 11.5 50C11.5 50 23 35.8333 23 27.3333C23 21.0745 17.8509 16 11.5 16ZM11.5 33C8.326 33 5.75 30.4613 5.75 27.3333C5.75 24.2053 8.326 21.6667 11.5 21.6667C14.674 21.6667 17.25 24.2053 17.25 27.3333C17.25 30.4613 14.674 33 11.5 33Z" fill="#2854A1"/>
<path d="M14 49H43.1169C43.1169 49 52 48.4169 52 41.4199C52 34.4229 43.1169 34.4229 43.1169 34.4229H31.7662C31.7662 34.4229 24.8571 34.4229 24.8571 27.4258C24.8571 20.4288 31.7662 21.0119 31.7662 21.0119H43.1169" stroke="#71CFFF" stroke-width="2" stroke-linecap="round" stroke-linejoin="round" stroke-dasharray="3 3"/>
<path d="M44.5 0C40.3581 0 37 3.2835 37 7.33333C37 12.8333 44.5 22 44.5 22C44.5 22 52 12.8333 52 7.33333C52 3.2835 48.6419 0 44.5 0ZM44.5 11C42.43 11 40.75 9.35733 40.75 7.33333C40.75 5.30933 42.43 3.66667 44.5 3.66667C46.57 3.66667 48.25 5.30933 48.25 7.33333C48.25 9.35733 46.57 11 44.5 11Z" fill="#2854A1"/>
</svg>
